source/img/mass.svg

<svg width="60" height="60" viewBox="0 0 60 60" fill="none" xmlns="http://www.w3.org/2000/svg">
<rect width="60" height="60" fill="#68B738"/>
<ellipse cx="35.2042" cy="24.3299" rx="1.0873" ry="1.08512" fill="white"/>
<ellipse cx="24.3311" cy="24.3299" rx="1.08731" ry="1.08512" fill="white"/>
<ellipse cx="24.3311" cy="37.3512" rx="1.08731" ry="1.08512" fill="white"/>
<ellipse cx="29.7677" cy="39.5215" rx="1.0873" ry="1.08512" fill="white"/>
<ellipse cx="21.0692" cy="30.7748" rx="1.08731" ry="1.08512" fill="white"/>
<ellipse cx="38.4661" cy="30.7748" rx="1.0873" ry="1.08512" fill="white"/>
<ellipse cx="35.2042" cy="37.3512" rx="1.0873" ry="1.08512" fill="white"/>
<mask id="path-9-inside-1" fill="white">
<path fill-rule="evenodd" clip-rule="evenodd" d="M34.9215 42.0581C35.3298 41.8622 35.8226 41.9298 36.1385 42.2542L37.9644 44.1292C38.2319 44.4039 38.6734 44.4039 38.941 44.1292C39.1987 43.8645 39.1987 43.4427 38.941 43.1781L37.5843 41.7849C37.1584 41.3475 37.2228 40.6356 37.682 40.2333C40.3238 37.9195 42 34.4688 42 30.6145C42 23.6477 36.5235 18 29.7678 18C23.0122 18 17.5356 23.6477 17.5356 30.6145C17.5356 34.4288 19.1773 37.8477 21.7717 40.1608C22.2244 40.5644 22.2849 41.2708 21.8617 41.7054L20.4276 43.1781C20.1698 43.4427 20.1698 43.8645 20.4276 44.1291C20.6951 44.4039 21.1366 44.4039 21.4042 44.1292L23.2838 42.199C23.6025 41.8718 24.1004 41.8061 24.5102 42.0076C26.103 42.7907 27.8858 43.229 29.7678 43.229C31.609 43.229 33.3553 42.8095 34.9215 42.0581ZM29.7678 41.8274C35.7728 41.8274 40.6409 36.8072 40.6409 30.6145C40.6409 24.4218 35.7728 19.4016 29.7678 19.4016C23.7628 19.4016 18.8948 24.4218 18.8948 30.6145C18.8948 36.8072 23.7628 41.8274 29.7678 41.8274ZM29.0083 30.298V26.5001V22.9409C29.0083 22.5094 29.3581 22.1596 29.7895 22.1596C30.221 22.1596 30.5708 22.5094 30.5708 22.9409V26.5001V30.298V30.8406V31.1226C30.5708 31.5661 30.2113 31.9257 29.7677 31.9257C29.3483 31.9257 29.0083 31.5857 29.0083 31.1663V30.8406V30.298Z"/>
</mask>
<path fill-rule="evenodd" clip-rule="evenodd" d="M34.9215 42.0581C35.3298 41.8622 35.8226 41.9298 36.1385 42.2542L37.9644 44.1292C38.2319 44.4039 38.6734 44.4039 38.941 44.1292C39.1987 43.8645 39.1987 43.4427 38.941 43.1781L37.5843 41.7849C37.1584 41.3475 37.2228 40.6356 37.682 40.2333C40.3238 37.9195 42 34.4688 42 30.6145C42 23.6477 36.5235 18 29.7678 18C23.0122 18 17.5356 23.6477 17.5356 30.6145C17.5356 34.4288 19.1773 37.8477 21.7717 40.1608C22.2244 40.5644 22.2849 41.2708 21.8617 41.7054L20.4276 43.1781C20.1698 43.4427 20.1698 43.8645 20.4276 44.1291C20.6951 44.4039 21.1366 44.4039 21.4042 44.1292L23.2838 42.199C23.6025 41.8718 24.1004 41.8061 24.5102 42.0076C26.103 42.7907 27.8858 43.229 29.7678 43.229C31.609 43.229 33.3553 42.8095 34.9215 42.0581ZM29.7678 41.8274C35.7728 41.8274 40.6409 36.8072 40.6409 30.6145C40.6409 24.4218 35.7728 19.4016 29.7678 19.4016C23.7628 19.4016 18.8948 24.4218 18.8948 30.6145C18.8948 36.8072 23.7628 41.8274 29.7678 41.8274ZM29.0083 30.298V26.5001V22.9409C29.0083 22.5094 29.3581 22.1596 29.7895 22.1596C30.221 22.1596 30.5708 22.5094 30.5708 22.9409V26.5001V30.298V30.8406V31.1226C30.5708 31.5661 30.2113 31.9257 29.7677 31.9257C29.3483 31.9257 29.0083 31.5857 29.0083 31.1663V30.8406V30.298Z" fill="white"/>
<path d="M23.2838 42.199L26.1495 44.9896L23.2838 42.199ZM24.5102 42.0076L26.275 38.418L24.5102 42.0076ZM21.4042 44.1292L18.5385 41.3385L21.4042 44.1292ZM20.4276 43.1781L23.2932 45.9687L20.4276 43.1781ZM37.5843 41.7849L34.7186 44.5756L37.5843 41.7849ZM37.682 40.2333L35.0465 37.2243L37.682 40.2333ZM21.7717 40.1608L19.1097 43.1464L21.7717 40.1608ZM21.8617 41.7054L18.9961 38.9147L21.8617 41.7054ZM38.941 43.1781L41.8067 40.3874L38.941 43.1781ZM37.9644 44.1292L40.8301 41.3385L37.9644 44.1292ZM36.1385 42.2542L33.2728 45.0449L36.1385 42.2542ZM34.9215 42.0581L33.1913 38.4516L34.9215 42.0581ZM33.2728 45.0449L35.0987 46.9198L40.8301 41.3385L39.0042 39.4636L33.2728 45.0449ZM41.8067 40.3874L40.45 38.9942L34.7186 44.5756L36.0753 45.9688L41.8067 40.3874ZM40.3175 43.2423C43.8075 40.1855 46 35.6466 46 30.6145H38C38 33.2911 36.8401 35.6534 35.0465 37.2243L40.3175 43.2423ZM46 30.6145C46 21.5555 38.8478 14 29.7678 14V22C34.1992 22 38 25.7399 38 30.6145H46ZM29.7678 14C20.6879 14 13.5356 21.5555 13.5356 30.6145H21.5356C21.5356 25.7399 25.3365 22 29.7678 22V14ZM13.5356 30.6145C13.5356 35.5943 15.683 40.0912 19.1097 43.1464L24.4336 37.1752C22.6716 35.6042 21.5356 33.2633 21.5356 30.6145H13.5356ZM18.9961 38.9147L17.5619 40.3874L23.2932 45.9687L24.7274 44.496L18.9961 38.9147ZM24.2699 46.9198L26.1495 44.9896L20.4181 39.4083L18.5385 41.3385L24.2699 46.9198ZM22.7454 45.5972C24.8722 46.6429 27.2573 47.229 29.7678 47.229V39.229C28.5143 39.229 27.3337 38.9385 26.275 38.418L22.7454 45.5972ZM29.7678 47.229C32.2236 47.229 34.5598 46.6681 36.6517 45.6645L33.1913 38.4516C32.1508 38.9508 30.9944 39.229 29.7678 39.229V47.229ZM29.7678 45.8274C38.0971 45.8274 44.6409 38.8994 44.6409 30.6145H36.6409C36.6409 34.715 33.4485 37.8274 29.7678 37.8274V45.8274ZM44.6409 30.6145C44.6409 22.3296 38.0971 15.4016 29.7678 15.4016V23.4016C33.4485 23.4016 36.6409 26.514 36.6409 30.6145H44.6409ZM29.7678 15.4016C21.4385 15.4016 14.8948 22.3296 14.8948 30.6145H22.8948C22.8948 26.514 26.0871 23.4016 29.7678 23.4016V15.4016ZM14.8948 30.6145C14.8948 38.8994 21.4385 45.8274 29.7678 45.8274V37.8274C26.0871 37.8274 22.8948 34.715 22.8948 30.6145H14.8948ZM26.5708 30.298V30.8406H34.5708V30.298H26.5708ZM26.5708 30.8406V31.1226H34.5708V30.8406H26.5708ZM33.0083 31.1663V30.8406H25.0083V31.1663H33.0083ZM33.0083 30.8406V30.298H25.0083V30.8406H33.0083ZM33.0083 30.298V26.5001H25.0083V30.298H33.0083ZM33.0083 26.5001V22.9409H25.0083V26.5001H33.0083ZM26.5708 22.9409V26.5001H34.5708V22.9409H26.5708ZM26.5708 26.5001V30.298H34.5708V26.5001H26.5708ZM29.7895 18.1596C27.1489 18.1596 25.0083 20.3003 25.0083 22.9409H33.0083C33.0083 24.7186 31.5672 26.1596 29.7895 26.1596V18.1596ZM26.5708 31.1226C26.5708 29.357 28.0021 27.9257 29.7677 27.9257V35.9257C32.4204 35.9257 34.5708 33.7753 34.5708 31.1226H26.5708ZM26.1495 44.9896C25.1569 46.009 23.7521 46.0922 22.7454 45.5972L26.275 38.418C24.4487 37.52 22.048 37.7346 20.4181 39.4083L26.1495 44.9896ZM17.5619 46.9198C19.3997 48.807 22.4321 48.807 24.2699 46.9198L18.5385 41.3385C19.8412 40.0008 21.9906 40.0008 23.2933 41.3385L17.5619 46.9198ZM17.5619 40.3874C15.7917 42.2051 15.7917 45.1021 17.5619 46.9198L23.2933 41.3385C24.548 42.6269 24.5479 44.6803 23.2932 45.9687L17.5619 40.3874ZM40.45 38.9942C41.7927 40.3731 41.394 42.2994 40.3175 43.2423L35.0465 37.2243C33.0515 38.9717 32.524 42.3219 34.7186 44.5756L40.45 38.9942ZM29.7895 26.1596C28.0119 26.1596 26.5708 24.7186 26.5708 22.9409H34.5708C34.5708 20.3003 32.4302 18.1596 29.7895 18.1596V26.1596ZM19.1097 43.1464C18.0463 42.1983 17.6626 40.2839 18.9961 38.9147L24.7274 44.496C26.9071 42.2577 26.4025 38.9306 24.4336 37.1752L19.1097 43.1464ZM41.8067 46.9198C43.5768 45.1021 43.5768 42.2051 41.8067 40.3874L36.0753 45.9688C34.8206 44.6803 34.8206 42.6269 36.0753 41.3385L41.8067 46.9198ZM35.0987 46.9198C36.9365 48.807 39.9689 48.807 41.8067 46.9198L36.0753 41.3385C37.378 40.0008 39.5274 40.0008 40.8301 41.3385L35.0987 46.9198ZM29.7677 27.9257C31.5574 27.9257 33.0083 29.3765 33.0083 31.1663H25.0083C25.0083 33.7948 27.1391 35.9257 29.7677 35.9257V27.9257ZM39.0042 39.4636C37.3881 37.804 35.0117 37.5783 33.1913 38.4516L36.6517 45.6645C35.648 46.1461 34.257 46.0555 33.2728 45.0449L39.0042 39.4636Z" fill="white" mask="url(#path-9-inside-1)"/>
<rect x="29" y="19" width="4" height="1.5" transform="rotate(-90 29 19)" fill="white"/>
<rect x="22" y="15" width="15.5" height="1.5" rx="0.75" fill="white"/>
</svg>

<svg width="60" height="60" fill="none" xmlns="http://www.w3.org/2000/svg"><path fill="#68B738" d="M0 0h60v60H0z"/><circle cx="35.2" cy="24.33" fill="#fff" r="1.09"/><circle cx="24.33" cy="24.33" fill="#fff" r="1.09"/><circle cx="24.33" cy="37.35" fill="#fff" r="1.09"/><circle cx="29.77" cy="39.52" fill="#fff" r="1.09"/><circle cx="21.07" cy="30.77" fill="#fff" r="1.09"/><circle cx="38.47" cy="30.77" fill="#fff" r="1.09"/><circle cx="35.2" cy="37.35" fill="#fff" r="1.09"/><mask id="a" fill="#fff"><path fill-rule="evenodd" clip-rule="evenodd" d="M34.92 42.06c.41-.2.9-.13 1.22.2l1.82 1.87a.68.68 0 00.98-.95l-1.36-1.4c-.42-.43-.36-1.14.1-1.55A12.75 12.75 0 0042 30.61C42 23.65 36.52 18 29.77 18 23 18 17.54 23.65 17.54 30.61c0 3.82 1.64 7.24 4.23 9.55.45.4.51 1.11.1 1.55l-1.44 1.47a.68.68 0 10.97.95l1.88-1.93c.32-.33.82-.4 1.23-.2a11.88 11.88 0 0010.41.06zm-5.15-.23c6 0 10.87-5.02 10.87-11.22 0-6.19-4.87-11.2-10.87-11.2-6 0-10.88 5.01-10.88 11.2 0 6.2 4.87 11.22 10.88 11.22zM29 30.3V22.94a.78.78 0 111.56 0v8.18a.8.8 0 01-.8.8.76.76 0 01-.76-.75V30.3z"/></mask><path fill-rule="evenodd" clip-rule="evenodd" d="M34.92 42.06c.41-.2.9-.13 1.22.2l1.82 1.87a.68.68 0 00.98-.95l-1.36-1.4c-.42-.43-.36-1.14.1-1.55A12.75 12.75 0 0042 30.61C42 23.65 36.52 18 29.77 18 23 18 17.54 23.65 17.54 30.61c0 3.82 1.64 7.24 4.23 9.55.45.4.51 1.11.1 1.55l-1.44 1.47a.68.68 0 10.97.95l1.88-1.93c.32-.33.82-.4 1.23-.2a11.88 11.88 0 0010.41.06zm-5.15-.23c6 0 10.87-5.02 10.87-11.22 0-6.19-4.87-11.2-10.87-11.2-6 0-10.88 5.01-10.88 11.2 0 6.2 4.87 11.22 10.88 11.22zM29 30.3V22.94a.78.78 0 111.56 0v8.18a.8.8 0 01-.8.8.76.76 0 01-.76-.75V30.3z" fill="#fff"/><path d="M23.28 42.2l2.87 2.79-2.87-2.8zm1.23-.2l1.76-3.58L24.51 42zm-3.1 2.13l-2.87-2.8 2.86 2.8zm-.98-.95l2.86 2.79-2.86-2.8zm17.15-1.4l-2.86 2.8 2.86-2.8zm.1-1.55l-2.63-3 2.63 3zm-15.9-.07l-2.67 2.99 2.66-2.99zm.08 1.55L19 38.9l2.86 2.8zm17.08 1.47l2.87-2.8-2.87 2.8zm-.98.95l2.87-2.8-2.87 2.8zm-1.82-1.88l-2.87 2.8 2.87-2.8zm-1.22-.2l-1.73-3.6 1.73 3.6zm-1.65 3l1.83 1.87 5.73-5.58L39 39.46l-5.73 5.58zm8.54-4.66l-1.36-1.4-5.73 5.59 1.36 1.39 5.73-5.58zm-1.5 2.85A16.75 16.75 0 0046 30.61h-8a8.75 8.75 0 01-2.95 6.61l5.27 6.02zM46 30.61C46 21.56 38.85 14 29.77 14v8C34.2 22 38 25.74 38 30.61h8zM29.77 14c-9.08 0-16.23 7.56-16.23 16.61h8c0-4.87 3.8-8.61 8.23-8.61v-8zM13.54 30.61c0 4.98 2.14 9.48 5.57 12.54l5.32-5.97a8.75 8.75 0 01-2.9-6.57h-8zm5.46 8.3l-1.44 1.48 5.73 5.58 1.44-1.47L19 38.9zm5.27 8.01l1.88-1.93-5.73-5.58-1.88 1.93 5.73 5.58zm-1.52-1.32a15.88 15.88 0 007.02 1.63v-8c-1.26 0-2.44-.3-3.5-.81l-3.52 7.18zm7.02 1.63c2.45 0 4.79-.56 6.88-1.57l-3.46-7.2c-1.04.5-2.2.77-3.42.77v8zm0-1.4c8.33 0 14.87-6.93 14.87-15.22h-8c0 4.1-3.2 7.22-6.87 7.22v8zM44.64 30.6c0-8.28-6.54-15.2-14.87-15.2v8c3.68 0 6.87 3.1 6.87 7.2h8zm-14.87-15.2c-8.33 0-14.88 6.92-14.88 15.2h8c0-4.1 3.2-7.2 6.88-7.2v-8zM14.89 30.6c0 8.29 6.55 15.22 14.88 15.22v-8c-3.68 0-6.88-3.11-6.88-7.22h-8zm11.68-.31v.54h8v-.54h-8zm0 .54v.28h8v-.28h-8zm6.44.33v-.33h-8v.33h8zm0-.33v-.54h-8v.54h8zm0-.54v-3.8h-8v3.8h8zm0-3.8v-3.56h-8v3.56h8zm-6.44-3.56v3.56h8v-3.56h-8zm0 3.56v3.8h8v-3.8h-8zm3.22-8.34A4.78 4.78 0 0025 22.94h8a3.22 3.22 0 01-3.22 3.22v-8zm-3.22 12.96a3.2 3.2 0 013.2-3.2v8a4.8 4.8 0 004.8-4.8h-8zM26.15 45c-1 1.02-2.4 1.1-3.4.6l3.52-7.17a5.06 5.06 0 00-5.85.99l5.73 5.58zm-8.59 1.93a4.68 4.68 0 006.71 0l-5.73-5.58a3.32 3.32 0 014.75 0l-5.73 5.58zm0-6.53a4.68 4.68 0 000 6.53l5.73-5.58a3.32 3.32 0 010 4.63l-5.73-5.58zm22.89-1.4a2.93 2.93 0 01-.13 4.25l-5.27-6.02a5.08 5.08 0 00-.33 7.36l5.73-5.59zM29.79 26.16a3.22 3.22 0 01-3.22-3.22h8a4.78 4.78 0 00-4.78-4.78v8zM19.1 43.15A2.93 2.93 0 0119 38.9l5.73 5.59a5.07 5.07 0 00-.3-7.32l-5.32 5.97zm22.7 3.77a4.68 4.68 0 000-6.53l-5.73 5.58a3.32 3.32 0 010-4.63l5.73 5.58zm-6.71 0a4.68 4.68 0 006.7 0l-5.72-5.58a3.32 3.32 0 014.75 0l-5.73 5.58zm-5.33-19A3.24 3.24 0 0133 31.18h-8a4.76 4.76 0 004.76 4.76v-8zM39 39.47a5.06 5.06 0 00-5.8-1l3.45 7.2c-1 .49-2.4.4-3.38-.62L39 39.46z" fill="#fff" mask="url(#a)"/><path fill="#fff" d="M29 19v-4h1.5v4z"/><rect x="22" y="15" width="15.5" height="1.5" rx=".75" fill="#fff"/></svg>
